icons/1_Primary/BuiltByBit.svg

<svg xmlns="http://www.w3.org/2000/svg" width="1024" height="1024" fill="none">
   <g clip-path="url(#a)">
      <path fill="#9ABEFF" d="M512 1024c282.77 0 512-229.23 512-512S794.77 0 512 0 0 229.23 0 512s229.23 512 512 512Z"/>
      <path fill="#fff" d="M509.391 256.67 282.71 381.55a5.409 5.409 0 0 0-2.804 4.781 5.415 5.415 0 0 0 2.874 4.739l121.15 64.42a5.414 5.414 0 0 0 5.241-.09l100.139-57.53a5.414 5.414 0 0 1 5.401 0L614.8 455.4a5.423 5.423 0 0 0 5.24.09l121.21-64.44a5.41 5.41 0 0 0 .07-9.52L514.61 256.67a5.411 5.411 0 0 0-5.219 0ZM403.71 488.49 281.9 423.73a5.408 5.408 0 0 0-7.302 2.093 5.416 5.416 0 0 0-.698 2.687v216.84a5.417 5.417 0 0 0 2.8 4.74l212.87 117.23a5.411 5.411 0 0 0 8-4.74V633.45a5.406 5.406 0 0 0-.731-2.709 5.407 5.407 0 0 0-1.989-1.981l-85.55-49.19a5.41 5.41 0 0 1-2.72-4.69v-81.61a5.411 5.411 0 0 0-2.87-4.78Zm216.59 0 121.8-64.76a5.414 5.414 0 0 1 7.303 2.093c.463.82.703 1.746.697 2.687v216.84a5.406 5.406 0 0 1-2.8 4.74L534.43 767.32a5.413 5.413 0 0 1-5.347-.095 5.412 5.412 0 0 1-2.653-4.645V633.45a5.407 5.407 0 0 1 2.721-4.69l85.579-49.18a5.405 5.405 0 0 0 2.721-4.69v-81.62a5.408 5.408 0 0 1 2.839-4.78h.01Z"/>
   </g>
   <defs>
      <clipPath id="a">
         <path fill="#fff" d="M0 0h1024v1024H0z"/>
      </clipPath>
   </defs>
</svg>

<svg width="1024" height="1024" viewBox="0 0 1024 1024" fill="none" xmlns="http://www.w3.org/2000/svg">
<g clip-path="url(#clip0_2_1749)">
<path d="M512 1024C794.77 1024 1024 794.77 1024 512C1024 229.23 794.77 0 512 0C229.23 0 0 229.23 0 512C0 794.77 229.23 1024 512 1024Z" fill="#9ABEFF"/>
<path d="M509.391 256.67L282.71 381.55C281.855 382.02 281.143 382.713 280.65 383.554C280.156 384.396 279.899 385.355 279.906 386.331C279.914 387.307 280.184 388.262 280.69 389.097C281.196 389.931 281.919 390.613 282.78 391.07L403.93 455.49C404.74 455.92 405.646 456.138 406.562 456.122C407.479 456.106 408.376 455.858 409.171 455.4L509.31 397.87C510.132 397.397 511.063 397.148 512.01 397.148C512.958 397.148 513.889 397.397 514.711 397.87L614.8 455.4C615.595 455.857 616.492 456.105 617.409 456.121C618.325 456.136 619.231 455.919 620.04 455.49L741.25 391.05C742.112 390.593 742.835 389.911 743.341 389.077C743.846 388.242 744.117 387.287 744.125 386.311C744.132 385.335 743.875 384.376 743.381 383.534C742.888 382.693 742.176 382 741.32 381.53L514.61 256.67C513.811 256.23 512.913 255.999 512 255.999C511.088 255.999 510.19 256.23 509.391 256.67ZM403.71 488.49L281.9 423.73C281.074 423.28 280.145 423.052 279.204 423.071C278.263 423.089 277.343 423.353 276.536 423.836C275.728 424.318 275.06 425.004 274.598 425.823C274.136 426.643 273.895 427.569 273.9 428.51V645.35C273.9 646.319 274.16 647.269 274.652 648.103C275.145 648.937 275.852 649.623 276.7 650.09L489.57 767.32C490.394 767.769 491.319 767.996 492.257 767.98C493.194 767.963 494.112 767.703 494.918 767.225C495.725 766.747 496.394 766.067 496.858 765.253C497.323 764.439 497.569 763.518 497.57 762.58V633.45C497.569 632.499 497.317 631.564 496.839 630.741C496.362 629.917 495.676 629.234 494.85 628.76L409.3 579.57C408.475 579.097 407.788 578.414 407.311 577.591C406.833 576.767 406.581 575.832 406.58 574.88V493.27C406.581 492.288 406.314 491.324 405.809 490.482C405.303 489.64 404.578 488.951 403.71 488.49ZM620.3 488.49L742.1 423.73C742.927 423.28 743.856 423.052 744.797 423.071C745.738 423.089 746.658 423.353 747.465 423.836C748.273 424.318 748.941 425.004 749.403 425.823C749.866 426.643 750.106 427.569 750.1 428.51V645.35C750.101 646.319 749.841 647.269 749.349 648.103C748.856 648.937 748.149 649.623 747.3 650.09L534.43 767.32C533.607 767.769 532.682 767.996 531.744 767.98C530.807 767.963 529.889 767.703 529.083 767.225C528.276 766.747 527.607 766.067 527.143 765.253C526.678 764.439 526.432 763.518 526.43 762.58V633.45C526.431 632.498 526.683 631.563 527.161 630.74C527.638 629.916 528.325 629.234 529.151 628.76L614.73 579.58C615.556 579.107 616.243 578.424 616.72 577.601C617.198 576.777 617.45 575.842 617.451 574.89V493.27C617.447 492.291 617.709 491.329 618.209 490.487C618.71 489.646 619.429 488.955 620.29 488.49H620.3Z" fill="white"/>
</g>
<defs>
<clipPath id="clip0_2_1749">
<rect width="1024" height="1024" fill="white"/>
</clipPath>
</defs>
</svg>
